svg/clockface/clockfacesquaresolid/clock_04_45.svg

<?xml version="1.0" encoding="UTF-8" standalone="no"?>
<svg
   height="1000"
   width="1000"
   version="1.1"
   viewBox="0 0 1000 1000"
   id="svg7"
   sodipodi:docname="clock_04_45.svg"
   xmlns:inkscape="http://www.inkscape.org/namespaces/inkscape"
   xmlns:sodipodi="http://sodipodi.sourceforge.net/DTD/sodipodi-0.dtd"
   xmlns="http://www.w3.org/2000/svg"
   xmlns:svg="http://www.w3.org/2000/svg">
  <defs
     id="defs11" />
  <sodipodi:namedview
     id="namedview9"
     pagecolor="#ffffff"
     bordercolor="#000000"
     borderopacity="0.25"
     inkscape:showpageshadow="2"
     inkscape:pageopacity="0.0"
     inkscape:pagecheckerboard="0"
     inkscape:deskcolor="#d1d1d1" />
  <path
     id="path15"
     style="color:#000000;fill:#000000;stroke-width:60;-inkscape-stroke:none"
     d="M 129 129 L 129 159 L 129 869 L 869 869 L 869 129 L 129 129 z M 270 470 L 500 470 A 30.003 30.003 0 0 1 515 474.01953 L 644.9043 549.01953 A 30 30 0 0 1 655.88477 590 A 30 30 0 0 1 614.9043 600.98047 L 491.96094 530 L 270 530 A 30 30 0 0 1 240 500 A 30 30 0 0 1 270 470 z " />
</svg>

<svg xmlns="http://www.w3.org/2000/svg" width="1000" height="1000"><path d="M129 129v740h740V129H129zm141 341h230a30.003 30.003 0 0 1 15 4.02l129.904 75a30 30 0 0 1 10.98 40.98 30 30 0 0 1-40.98 10.98L491.961 530H270a30 30 0 0 1-30-30 30 30 0 0 1 30-30z" style="-inkscape-stroke:none" stroke-width="60"/></svg>
